Obsidian-SemiLight/actions/22s/labplot-3x-zoom.svg

<svg viewBox="0 0 22 22" xmlns="http://www.w3.org/2000/svg"><path d="m18.857694 12.027051q0 .850202-.479757 1.396761-.473684.546559-1.360324.728745v.04858q1.062753.133603 1.58502.680162.52834.546559.52834 1.421053 0 1.26923-.880566 1.961538-.880567.686235-2.526316.686235-.704454 0-1.299596-.103239-.589068-.103239-1.1417-.376518v-1.020243q.564777.279352 1.208502.431174.643725.151822 1.244939.151822 2.246964 0 2.246964-1.755061 0-1.566802-2.483806-1.566802h-.862348v-.929149h.874494q1.044534 0 1.633603-.44332.589069-.449393.589069-1.238867 0-.637651-.431174-.995951-.425101-.3583-1.18421-.3583-.589069 0-1.093118.163968-.497976.157895-1.147773.582996l-.546559-.746964q.546559-.431174 1.257085-.674089.716599-.2489876 1.518219-.2489876 1.299595 0 2.022267.5951416.728745.589069.728745 1.609312z" fill="#3daee9"/><path d="m3 3v2h1v-1h1v-1zm5 0v1h2v-1zm4 0v1h2v-1zm5 0v1h1v1h1v-2zm-8 4v1h2.292969l-3.292969 3.292969.707031.707031 3.292969-3.2929688v2.2929688h1v-4h-1zm-6 1v2h1v-2zm0 5v6h6v-6zm1 1h4v4h-4z" fill="#4d4d4d"/></svg>

<svg xmlns="http://www.w3.org/2000/svg" viewBox="0 0 22 22">
  <defs id="defs3051">
    <style type="text/css" id="current-color-scheme">
      .ColorScheme-Text {
        color:#4d4d4d;
      }
      .ColorScheme-Highlight {
        color:#3daee9;
      }
      </style>
  </defs>
 <path 
     style="fill:currentColor;fill-opacity:1;stroke:none" 
     d="m 18.857694,12.027051 q 0,0.850202 -0.479757,1.396761 -0.473684,0.546559 -1.360324,0.728745 l 0,0.04858 q 1.062753,0.133603 1.58502,0.680162 0.52834,0.546559 0.52834,1.421053 0,1.26923 -0.880566,1.961538 -0.880567,0.686235 -2.526316,0.686235 -0.704454,0 -1.299596,-0.103239 -0.589068,-0.103239 -1.1417,-0.376518 l 0,-1.020243 q 0.564777,0.279352 1.208502,0.431174 0.643725,0.151822 1.244939,0.151822 2.246964,0 2.246964,-1.755061 0,-1.566802 -2.483806,-1.566802 l -0.862348,0 0,-0.929149 0.874494,0 q 1.044534,0 1.633603,-0.44332 0.589069,-0.449393 0.589069,-1.238867 0,-0.637651 -0.431174,-0.995951 -0.425101,-0.3583 -1.18421,-0.3583 -0.589069,0 -1.093118,0.163968 -0.497976,0.157895 -1.147773,0.582996 l -0.546559,-0.746964 q 0.546559,-0.431174 1.257085,-0.674089 0.716599,-0.2489876 1.518219,-0.2489876 1.299595,0 2.022267,0.5951416 0.728745,0.589069 0.728745,1.609312 z"
     class="ColorScheme-Highlight"
     />
 <path 
     style="fill:currentColor;fill-opacity:1;stroke:none" 
     d="M 3,3 3,5 4,5 4,4 5,4 5,3 3,3 Z m 5,0 0,1 2,0 0,-1 -2,0 z m 4,0 0,1 2,0 0,-1 -2,0 z m 5,0 0,1 1,0 0,1 1,0 0,-2 -2,0 z M 9,7 9,8 11.292969,8 8,11.292969 8.707031,12 12,8.7070312 12,11 13,11 13,7 12,7 9,7 Z M 3,8 3,10 4,10 4,8 3,8 Z m 0,5 0,6 6,0 0,-6 -6,0 z m 1,1 4,0 0,4 -4,0 0,-4 z"
     class="ColorScheme-Text"
     />
</svg>
